Sources/FrostedUI/Resources/Icons.xcassets/threeDotsCircleSize32.imageset/three-dots-circle-size-32.svg

<svg
  width="32"
  height="32"
  viewBox="0 0 32 32"
  fill="none"
  xmlns="http://www.w3.org/2000/svg"
  data-fui-icon="true"
>
  <path
    d="M10.6667 16V15.9867M11 16C11 16.1841 10.8508 16.3333 10.6667 16.3333 10.4826 16.3333 10.3333 16.1841 10.3333 16 10.3333 15.8159 10.4826 15.6667 10.6667 15.6667 10.8508 15.6667 11 15.8159 11 16zM16 16V15.9867M16.3333 16C16.3333 16.1841 16.1841 16.3333 16 16.3333 15.8159 16.3333 15.6667 16.1841 15.6667 16 15.6667 15.8159 15.8159 15.6667 16 15.6667 16.1841 15.6667 16.3333 15.8159 16.3333 16zM21.3333 16V15.9867M21.6667 16C21.6667 16.1841 21.5175 16.3333 21.3333 16.3333 21.1492 16.3333 21 16.1841 21 16 21 15.8159 21.1492 15.6667 21.3333 15.6667 21.5175 15.6667 21.6667 15.8159 21.6667 16z"
    stroke="currentColor"
    stroke-width="2"
    stroke-linecap="round"
  />
  <path
    d="M28.3333 16C28.3333 22.8115 22.8115 28.3333 16 28.3333C9.1885 28.3333 3.66667 22.8115 3.66667 16C3.66667 9.18849 9.1885 3.66666 16 3.66666C22.8115 3.66666 28.3333 9.18849 28.3333 16Z"
    stroke="currentColor"
    stroke-width="1.5"
  />
</svg>

<svg xmlns="http://www.w3.org/2000/svg" width="32" height="32" fill="none" data-fui-icon="true" viewBox="0 0 32 32"><path stroke="currentColor" stroke-linecap="round" stroke-width="2" d="M10.667 16v-.013M11 16a.333.333 0 1 1-.667 0A.333.333 0 0 1 11 16zm5 0v-.013m.333.013a.333.333 0 1 1-.666 0 .333.333 0 0 1 .666 0zm5 0v-.013m.334.013A.333.333 0 1 1 21 16a.333.333 0 0 1 .667 0z"/><path stroke="currentColor" stroke-width="1.5" d="M28.333 16c0 6.811-5.521 12.333-12.333 12.333S3.667 22.812 3.667 16 9.189 3.667 16 3.667 28.333 9.188 28.333 16Z"/></svg>
